pix_core/t/backpack.svg

<svg preserveAspectRatio="xMinYMid meet" viewBox="0 0 384 512" xmlns="http://www.w3.org/2000/svg"><path d="m144 56c0-4.4 3.6-8 8-8h80c4.4 0 8 3.6 8 8v72h-96zm176 72h-32v-72c0-30.9-25.1-56-56-56h-80c-30.9 0-56 25.1-56 56v72h-32c-35.3 0-64 28.7-64 64v224c0 35.3 28.7 64 64 64 0 17.7 14.3 32 32 32s32-14.3 32-32h128c0 17.7 14.3 32 32 32s32-14.3 32-32c35.3 0 64-28.7 64-64v-224c0-35.3-28.7-64-64-64zm-208 96h160c8.8 0 16 7.2 16 16s-7.2 16-16 16h-160c-8.8 0-16-7.2-16-16s7.2-16 16-16zm0 128h160c8.8 0 16 7.2 16 16s-7.2 16-16 16h-160c-8.8 0-16-7.2-16-16s7.2-16 16-16z" fill="#fff"/></svg>

<svg xmlns="http://www.w3.org/2000/svg" viewBox="0 0 384 512" preserveAspectRatio="xMinYMid meet"><!--!Font Awesome Free 6.5.2 by @fontawesome - https://fontawesome.com License - https://fontawesome.com/license/free Copyright 2024 Fonticons, Inc.--><path fill="#fff" d="M144 56c0-4.4 3.6-8 8-8h80c4.4 0 8 3.6 8 8v72H144V56zm176 72H288V56c0-30.9-25.1-56-56-56H152C121.1 0 96 25.1 96 56v72H64c-35.3 0-64 28.7-64 64V416c0 35.3 28.7 64 64 64c0 17.7 14.3 32 32 32s32-14.3 32-32H256c0 17.7 14.3 32 32 32s32-14.3 32-32c35.3 0 64-28.7 64-64V192c0-35.3-28.7-64-64-64zM112 224H272c8.8 0 16 7.2 16 16s-7.2 16-16 16H112c-8.8 0-16-7.2-16-16s7.2-16 16-16zm0 128H272c8.8 0 16 7.2 16 16s-7.2 16-16 16H112c-8.8 0-16-7.2-16-16s7.2-16 16-16z"/></svg>
